resources/haticons/SVG/meter.svg

<!-- Generated by IcoMoon.io -->
<svg version="1.1" xmlns="http://www.w3.org/2000/svg" width="24" height="24" viewBox="0 0 24 24">
<title>meter</title>
<path d="M12 1.5c6.627 0 12 5.373 12 12 0 4.519-2.498 8.453-6.188 10.5h-11.625c-3.69-2.047-6.188-5.981-6.188-10.5 0-6.627 5.373-12 12-12zM18.795 20.295c1.815-1.815 2.815-4.228 2.815-6.795h-2.109v-1.5h1.993c-0.164-1.055-0.501-2.066-0.998-3h-2.495v-1.5h1.507c-0.221-0.276-0.458-0.541-0.712-0.795-1.083-1.083-2.38-1.876-3.795-2.339v1.634h-1.5v-1.993c-0.492-0.077-0.993-0.116-1.5-0.116s-1.008 0.040-1.5 0.116v1.993h-1.5v-1.634c-1.415 0.463-2.712 1.256-3.795 2.339-0.254 0.254-0.491 0.519-0.712 0.795h1.507v1.5h-2.496c-0.496 0.934-0.833 1.945-0.998 3h1.993v1.5h-2.109c0 2.567 1 4.98 2.815 6.795 0.251 0.251 0.514 0.486 0.787 0.705h4.508l0.857-12h1.286l0.857 12h4.508c0.273-0.219 0.536-0.454 0.787-0.705z"></path>
</svg>

<svg xmlns="http://www.w3.org/2000/svg" width="24" height="24"><path d="M12 1.5c6.627 0 12 5.373 12 12 0 4.519-2.498 8.453-6.188 10.5H6.187A11.996 11.996 0 0 1-.001 13.5c0-6.627 5.373-12 12-12zm6.795 18.795A9.547 9.547 0 0 0 21.61 13.5h-2.109V12h1.993a9.474 9.474 0 0 0-.998-3h-2.495V7.5h1.507a9.678 9.678 0 0 0-4.507-3.134V6h-1.5V4.007a9.696 9.696 0 0 0-3 0V6h-1.5V4.366A9.678 9.678 0 0 0 4.494 7.5h1.507V9H3.505a9.525 9.525 0 0 0-.998 3H4.5v1.5H2.391c0 2.567 1 4.98 2.815 6.795.251.251.514.486.787.705h4.508l.857-12h1.286l.857 12h4.508a9.67 9.67 0 0 0 .787-.705z"/></svg>
